static/img/kroki/4a144047519e1addedf6179a6c795f66.svg

<?xml version="1.0" encoding="us-ascii" standalone="no"?><svg xmlns="http://www.w3.org/2000/svg" xmlns:xlink="http://www.w3.org/1999/xlink" contentStyleType="text/css" height="352px" preserveAspectRatio="none" style="width:599px;height:352px;" version="1.1" viewBox="0 0 599 352" width="599px" zoomAndPan="magnify"><defs/><g><!--class azure_load_balancer--><g id="elem_azure_load_balancer"><rect codeLine="22" fill="#3D176E" height="39.7891" id="azure_load_balancer" rx="2.5" ry="2.5" style="stroke:#000D19;stroke-width:0.5;" width="212" x="210.5" y="206.58"/><ellipse cx="225.5" cy="226.4745" fill="#ADD1B2" rx="11" ry="11" style="stroke:#181818;stroke-width:1.0;"/><path d="M228.4688,232.1152 Q227.8906,232.412 227.25,232.5527 Q226.6094,232.7089 225.9063,232.7089 Q223.4063,232.7089 222.0781,231.0683 Q220.7656,229.412 220.7656,226.287 Q220.7656,223.162 222.0781,221.5058 Q223.4063,219.8495 225.9063,219.8495 Q226.6094,219.8495 227.25,220.0058 Q227.9063,220.162 228.4688,220.4589 L228.4688,223.1777 Q227.8438,222.5995 227.25,222.3339 Q226.6563,222.0527 226.0313,222.0527 Q224.6875,222.0527 224,223.1308 Q223.3125,224.1933 223.3125,226.287 Q223.3125,228.3808 224,229.4589 Q224.6875,230.5214 226.0313,230.5214 Q226.6563,230.5214 227.25,230.2558 Q227.8438,229.9745 228.4688,229.3964 L228.4688,232.1152 Z " fill="#000000"/><text fill="#D9B8FF" font-family="Helvetica" font-size="17" lengthAdjust="spacing" textLength="170" x="244.5" y="232.3598">azure_load_balancer</text></g><!--class azure_subnet--><g id="elem_azure_subnet"><rect codeLine="24" fill="#3D176E" height="39.7891" id="azure_subnet" rx="2.5" ry="2.5" style="stroke:#000D19;stroke-width:0.5;" width="154" x="369.5" y="106.79"/><ellipse cx="384.5" cy="126.6845" fill="#ADD1B2" rx="11" ry="11" style="stroke:#181818;stroke-width:1.0;"/><path d="M387.4688,132.3252 Q386.8906,132.622 386.25,132.7627 Q385.6094,132.9189 384.9063,132.9189 Q382.4063,132.9189 381.0781,131.2783 Q379.7656,129.622 379.7656,126.497 Q379.7656,123.372 381.0781,121.7158 Q382.4063,120.0595 384.9063,120.0595 Q385.6094,120.0595 386.25,120.2158 Q386.9063,120.372 387.4688,120.6689 L387.4688,123.3877 Q386.8438,122.8095 386.25,122.5439 Q385.6563,122.2627 385.0313,122.2627 Q383.6875,122.2627 383,123.3408 Q382.3125,124.4033 382.3125,126.497 Q382.3125,128.5908 383,129.6689 Q383.6875,130.7314 385.0313,130.7314 Q385.6563,130.7314 386.25,130.4658 Q386.8438,130.1845 387.4688,129.6064 L387.4688,132.3252 Z " fill="#000000"/><text fill="#D9B8FF" font-family="Helvetica" font-size="17" lengthAdjust="spacing" textLength="112" x="403.5" y="132.5698">azure_subnet</text></g><!--class azure_virtual_machine--><g id="elem_azure_virtual_machine"><rect codeLine="26" fill="#3D176E" height="39.7891" id="azure_virtual_machine" rx="2.5" ry="2.5" style="stroke:#000D19;stroke-width:0.5;" width="233" x="359" y="306.37"/><ellipse cx="374" cy="326.2645" fill="#ADD1B2" rx="11" ry="11" style="stroke:#181818;stroke-width:1.0;"/><path d="M376.9688,331.9052 Q376.3906,332.202 375.75,332.3427 Q375.1094,332.4989 374.4063,332.4989 Q371.9063,332.4989 370.5781,330.8583 Q369.2656,329.202 369.2656,326.077 Q369.2656,322.952 370.5781,321.2958 Q371.9063,319.6395 374.4063,319.6395 Q375.1094,319.6395 375.75,319.7958 Q376.4063,319.952 376.9688,320.2489 L376.9688,322.9677 Q376.3438,322.3895 375.75,322.1239 Q375.1563,321.8427 374.5313,321.8427 Q373.1875,321.8427 372.5,322.9208 Q371.8125,323.9833 371.8125,326.077 Q371.8125,328.1708 372.5,329.2489 Q373.1875,330.3114 374.5313,330.3114 Q375.1563,330.3114 375.75,330.0458 Q376.3438,329.7645 376.9688,329.1864 L376.9688,331.9052 Z " fill="#000000"/><text fill="#D9B8FF" font-family="Helvetica" font-size="17" lengthAdjust="spacing" textLength="191" x="393" y="332.1498">azure_virtual_machine</text></g><!--class azure_virtual_machine_scale_set--><g id="elem_azure_virtual_machine_scale_set"><rect codeLine="28" fill="#3D176E" height="39.7891" id="azure_virtual_machine_scale_set" rx="2.5" ry="2.5" style="stroke:#000D19;stroke-width:0.5;" width="317" x="7" y="306.37"/><ellipse cx="22" cy="326.2645" fill="#ADD1B2" rx="11" ry="11" style="stroke:#181818;stroke-width:1.0;"/><path d="M24.9688,331.9052 Q24.3906,332.202 23.75,332.3427 Q23.1094,332.4989 22.4063,332.4989 Q19.9063,332.4989 18.5781,330.8583 Q17.2656,329.202 17.2656,326.077 Q17.2656,322.952 18.5781,321.2958 Q19.9063,319.6395 22.4063,319.6395 Q23.1094,319.6395 23.75,319.7958 Q24.4063,319.952 24.9688,320.2489 L24.9688,322.9677 Q24.3438,322.3895 23.75,322.1239 Q23.1563,321.8427 22.5313,321.8427 Q21.1875,321.8427 20.5,322.9208 Q19.8125,323.9833 19.8125,326.077 Q19.8125,328.1708 20.5,329.2489 Q21.1875,330.3114 22.5313,330.3114 Q23.1563,330.3114 23.75,330.0458 Q24.3438,329.7645 24.9688,329.1864 L24.9688,331.9052 Z " fill="#000000"/><text fill="#D9B8FF" font-family="Helvetica" font-size="17" lengthAdjust="spacing" textLength="275" x="41" y="332.1498">azure_virtual_machine_scale_set</text></g><!--class azure_virtual_network--><g id="elem_azure_virtual_network"><rect codeLine="30" fill="#3D176E" height="39.7891" id="azure_virtual_network" rx="2.5" ry="2.5" style="stroke:#000D19;stroke-width:0.5;" width="231" x="266" y="7"/><ellipse cx="281" cy="26.8945" fill="#ADD1B2" rx="11" ry="11" style="stroke:#181818;stroke-width:1.0;"/><path d="M283.9688,32.5352 Q283.3906,32.832 282.75,32.9727 Q282.1094,33.1289 281.4063,33.1289 Q278.9063,33.1289 277.5781,31.4883 Q276.2656,29.832 276.2656,26.707 Q276.2656,23.582 277.5781,21.9258 Q278.9063,20.2695 281.4063,20.2695 Q282.1094,20.2695 282.75,20.4258 Q283.4063,20.582 283.9688,20.8789 L283.9688,23.5977 Q283.3438,23.0195 282.75,22.7539 Q282.1563,22.4727 281.5313,22.4727 Q280.1875,22.4727 279.5,23.5508 Q278.8125,24.6133 278.8125,26.707 Q278.8125,28.8008 279.5,29.8789 Q280.1875,30.9414 281.5313,30.9414 Q282.1563,30.9414 282.75,30.6758 Q283.3438,30.3945 283.9688,29.8164 L283.9688,32.5352 Z " fill="#000000"/><text fill="#D9B8FF" font-family="Helvetica" font-size="17" lengthAdjust="spacing" textLength="189" x="300" y="32.7798">azure_virtual_network</text></g><!--link azure_load_balancer to azure_virtual_machine--><g id="link_azure_load_balancer_azure_virtual_machine"><path codeLine="32" d="M347.91,246.8 C375.79,263.94 411.1902,285.7052 439.0402,302.8452 " fill="none" id="azure_load_balancer-to-azure_virtual_machine" style="stroke:#1A83AF;stroke-width:2.0;"/><polygon fill="#1A83AF" points="444.15,305.99,438.5818,297.8663,439.8918,303.3693,434.3887,304.6794,444.15,305.99" style="stroke:#1A83AF;stroke-width:2.0;"/></g><!--link azure_load_balancer to azure_virtual_machine_scale_set--><g id="link_azure_load_balancer_azure_virtual_machine_scale_set"><path codeLine="33" d="M286.67,246.8 C260.19,263.94 226.7552,285.5871 200.3052,302.7271 " fill="none" id="azure_load_balancer-to-azure_virtual_machine_scale_set" style="stroke:#1A83AF;stroke-width:2.0;"/><polygon fill="#1A83AF" points="195.27,305.99,204.9981,304.4525,199.466,303.2709,200.6476,297.7388,195.27,305.99" style="stroke:#1A83AF;stroke-width:2.0;"/></g><!--link azure_subnet to azure_load_balancer--><g id="link_azure_subnet_azure_load_balancer"><path codeLine="34" d="M420.82,147.01 C398.03,164.15 369.7044,185.4526 346.9244,202.5926 " fill="none" id="azure_subnet-to-azure_load_balancer" style="stroke:#1A83AF;stroke-width:2.0;"/><polygon fill="#1A83AF" points="342.13,206.2,351.7266,203.9852,346.1254,203.1938,346.9167,197.5926,342.13,206.2" style="stroke:#1A83AF;stroke-width:2.0;"/></g><!--link azure_subnet to azure_virtual_machine--><g id="link_azure_subnet_azure_virtual_machine"><path codeLine="35" d="M449.33,146.99 C454.88,184.76 466.2275,262.1138 471.7875,299.9438 " fill="none" id="azure_subnet-to-azure_virtual_machine" style="stroke:#1A83AF;stroke-width:2.0;"/><polygon fill="#1A83AF" points="472.66,305.88,475.3088,296.394,471.9329,300.9331,467.3938,297.5573,472.66,305.88" style="stroke:#1A83AF;stroke-width:2.0;"/></g><!--link azure_virtual_network to azure_load_balancer--><g id="link_azure_virtual_network_azure_load_balancer"><path codeLine="36" d="M373.69,47.2 C367.37,63.08 358.43,86.24 351.5,106.79 C339.77,141.6 329.676,177.0734 323.216,200.6434 " fill="none" id="azure_virtual_network-to-azure_load_balancer" style="stroke:#1A83AF;stroke-width:2.0;"/><polygon fill="#1A83AF" points="321.63,206.43,327.8667,198.8074,322.9516,201.6078,320.1512,196.6928,321.63,206.43" style="stroke:#1A83AF;stroke-width:2.0;"/></g><!--link azure_virtual_network to azure_subnet--><g id="link_azure_virtual_network_azure_subnet"><path codeLine="37" d="M394.34,47.22 C405.74,64.36 418.9799,84.2823 430.3599,101.4123 " fill="none" id="azure_virtual_network-to-azure_subnet" style="stroke:#1A83AF;stroke-width:2.0;"/><polygon fill="#1A83AF" points="433.68,106.41,432.0316,96.7001,430.9132,102.2453,425.368,101.1269,433.68,106.41" style="stroke:#1A83AF;stroke-width:2.0;"/></g><!--SRC=[dP1BRy8m48Jl_0fBd958KGjSAgL8gBsWglHMLT4cNXChZetM3WYg_lS6wCDvG50lFknykpFZL79acA_TZkMOnqYsPpEfrq2Giv38R6T66M9z8K2CndLnRhJh11QG8tj4jK4d4wWJhwbCCetMiXjFUe0aMv4fD3-TTmJQbX9gvr4p1TQ6pf6C2uTU63wD9qBKoVhH_eW7upjiO8OuqZSo70vvCAqZdLONU_yIIxb75lYVjZ0E6p4R5aVgOie3uOLi5FtHpsPy1iwbNh5RR_PooaGQgJ9Vfi3Dza0BKDQtiGu9ZTkjSTPeXTC95-DM-EaSd1n-Zi6-88oK0Hx5e40dPPwFtcT5jKMiqJN66qck01NbaAHIOvSUsGHK-LwuLBfi3ML7lItOuAqVX9DHE7yVtBUR_7FjBrklKhbbitAwaswFL-zxfSqLQwSaNm00]--></g></svg>

<svg xmlns="http://www.w3.org/2000/svg" width="599" height="352" viewBox="0 0 599 352"><rect width="212" height="39.789" x="210.5" y="206.58" fill="#3D176E" rx="2.5" ry="2.5" style="stroke:#000d19;stroke-width:.5"/><circle cx="225.5" cy="226.475" r="11" fill="#ADD1B2" style="stroke:#181818;stroke-width:1"/><path d="M228.469 232.115q-.578.297-1.219.438-.64.156-1.344.156-2.5 0-3.828-1.64-1.312-1.657-1.312-4.782t1.312-4.781q1.328-1.656 3.828-1.656.703 0 1.344.156.656.156 1.219.453v2.719q-.625-.578-1.219-.844-.594-.281-1.219-.281-1.344 0-2.031 1.078-.687 1.062-.687 3.156t.687 3.172q.688 1.062 2.031 1.062.625 0 1.219-.265.594-.281 1.219-.86z"/><text x="244.5" y="232.36" fill="#D9B8FF" font-family="Helvetica" font-size="17" textLength="170">azure_load_balancer</text><rect width="154" height="39.789" x="369.5" y="106.79" fill="#3D176E" rx="2.5" ry="2.5" style="stroke:#000d19;stroke-width:.5"/><circle cx="384.5" cy="126.684" r="11" fill="#ADD1B2" style="stroke:#181818;stroke-width:1"/><path d="M387.469 132.325q-.578.297-1.219.438-.64.156-1.344.156-2.5 0-3.828-1.64-1.312-1.657-1.312-4.782t1.312-4.781q1.328-1.656 3.828-1.656.703 0 1.344.156.656.156 1.219.453v2.719q-.625-.579-1.219-.844-.594-.281-1.219-.281-1.344 0-2.031 1.078-.687 1.062-.687 3.156t.687 3.172q.688 1.062 2.031 1.062.625 0 1.219-.265.594-.281 1.219-.86z"/><text x="403.5" y="132.57" fill="#D9B8FF" font-family="Helvetica" font-size="17" textLength="112">azure_subnet</text><rect width="233" height="39.789" x="359" y="306.37" fill="#3D176E" rx="2.5" ry="2.5" style="stroke:#000d19;stroke-width:.5"/><circle cx="374" cy="326.264" r="11" fill="#ADD1B2" style="stroke:#181818;stroke-width:1"/><path d="M376.969 331.905q-.578.297-1.219.438-.64.156-1.344.156-2.5 0-3.828-1.64-1.312-1.657-1.312-4.782t1.312-4.781q1.328-1.656 3.828-1.656.703 0 1.344.156.656.156 1.219.453v2.719q-.625-.579-1.219-.844-.594-.281-1.219-.281-1.344 0-2.031 1.078-.687 1.062-.687 3.156t.687 3.172q.688 1.062 2.031 1.062.625 0 1.219-.265.594-.281 1.219-.86z"/><text x="393" y="332.15" fill="#D9B8FF" font-family="Helvetica" font-size="17" textLength="191">azure_virtual_machine</text><rect width="317" height="39.789" x="7" y="306.37" fill="#3D176E" rx="2.5" ry="2.5" style="stroke:#000d19;stroke-width:.5"/><circle cx="22" cy="326.264" r="11" fill="#ADD1B2" style="stroke:#181818;stroke-width:1"/><path d="M24.969 331.905q-.578.297-1.219.438-.64.156-1.344.156-2.5 0-3.828-1.64-1.312-1.657-1.312-4.782t1.312-4.781q1.328-1.656 3.828-1.656.703 0 1.344.156.656.156 1.219.453v2.719q-.625-.579-1.219-.844-.594-.281-1.219-.281-1.343 0-2.031 1.078-.687 1.062-.687 3.156t.687 3.172q.688 1.062 2.031 1.062.625 0 1.219-.265.594-.281 1.219-.86z"/><text x="41" y="332.15" fill="#D9B8FF" font-family="Helvetica" font-size="17" textLength="275">azure_virtual_machine_scale_set</text><rect width="231" height="39.789" x="266" y="7" fill="#3D176E" rx="2.5" ry="2.5" style="stroke:#000d19;stroke-width:.5"/><circle cx="281" cy="26.895" r="11" fill="#ADD1B2" style="stroke:#181818;stroke-width:1"/><path d="M283.969 32.535q-.578.297-1.219.438-.64.156-1.344.156-2.5 0-3.828-1.64-1.312-1.657-1.312-4.782t1.312-4.781q1.328-1.656 3.828-1.656.703 0 1.344.156.656.156 1.219.453v2.719q-.625-.578-1.219-.844-.594-.281-1.219-.281-1.344 0-2.031 1.078-.687 1.062-.687 3.156t.687 3.172q.688 1.062 2.031 1.062.625 0 1.219-.265.594-.281 1.219-.86z"/><text x="300" y="32.78" fill="#D9B8FF" font-family="Helvetica" font-size="17" textLength="189">azure_virtual_network</text><path fill="none" d="M347.91 246.8c27.88 17.14 63.28 38.905 91.13 56.045" style="stroke:#1a83af;stroke-width:2"/><path fill="#1A83AF" d="m444.15 305.99-5.568-8.124 1.31 5.503-5.503 1.31z" style="stroke:#1a83af;stroke-width:2"/><path fill="none" d="M286.67 246.8c-26.48 17.14-59.915 38.787-86.365 55.927" style="stroke:#1a83af;stroke-width:2"/><path fill="#1A83AF" d="m195.27 305.99 9.728-1.538-5.532-1.181 1.182-5.532z" style="stroke:#1a83af;stroke-width:2"/><path fill="none" d="M420.82 147.01c-22.79 17.14-51.116 38.443-73.896 55.583" style="stroke:#1a83af;stroke-width:2"/><path fill="#1A83AF" d="m342.13 206.2 9.597-2.215-5.602-.791.792-5.601z" style="stroke:#1a83af;stroke-width:2"/><path fill="none" d="M449.33 146.99c5.55 37.77 16.898 115.124 22.458 152.954" style="stroke:#1a83af;stroke-width:2"/><path fill="#1A83AF" d="m472.66 305.88 2.649-9.486-3.376 4.54-4.54-3.377z" style="stroke:#1a83af;stroke-width:2"/><path fill="none" d="M373.69 47.2c-6.32 15.88-15.26 39.04-22.19 59.59-11.73 34.81-21.824 70.283-28.284 93.853" style="stroke:#1a83af;stroke-width:2"/><path fill="#1A83AF" d="m321.63 206.43 6.237-7.623-4.915 2.8-2.8-4.914z" style="stroke:#1a83af;stroke-width:2"/><path fill="none" d="M394.34 47.22c11.4 17.14 24.64 37.062 36.02 54.192" style="stroke:#1a83af;stroke-width:2"/><path fill="#1A83AF" d="m433.68 106.41-1.648-9.71-1.119 5.545-5.545-1.118z" style="stroke:#1a83af;stroke-width:2"/></svg>
